X: 17180
T: Hennessy's
R: hornpipe
M: 4/4
K: Gmajor
|:D2|GABc dBGB|g2fg edBA|GABc dedc|BGAF GFED|
GABc (3dcB GB|(3ggg fg edBA|dedc BGAF|G2GF G2:|
|:Bc|d^cde gB^AB|g2ag fd (3d^cd|gfed eBcd|edd^c d2 ef|
gedc BAGB|ABAG (3EFG AB|dedc BGAF|G2GF G2:|

